src/assets/outline/GlobalEdit.svg

<svg width="24" height="24" viewBox="0 0 24 24"  xmlns="http://www.w3.org/2000/svg">
<path d="M12 22.75C6.07 22.75 1.25 17.93 1.25 12C1.25 6.07 6.07 1.25 12 1.25C17.93 1.25 22.75 6.07 22.75 12C22.75 12.41 22.41 12.75 22 12.75C21.59 12.75 21.25 12.41 21.25 12C21.25 6.9 17.1 2.75 12 2.75C6.9 2.75 2.75 6.9 2.75 12C2.75 17.1 6.9 21.25 12 21.25C12.41 21.25 12.75 21.59 12.75 22C12.75 22.41 12.41 22.75 12 22.75Z" />
<path d="M9.00024 21.75H8.00024C7.59024 21.75 7.25024 21.41 7.25024 21C7.25024 20.59 7.57023 20.26 7.98023 20.25C6.41023 14.89 6.41023 9.11 7.98023 3.75C7.58023 3.74 7.25024 3.41 7.25024 3C7.25024 2.59 7.59024 2.25 8.00024 2.25H9.00024C9.24024 2.25 9.47024 2.37 9.61024 2.56C9.75024 2.76 9.79025 3.00999 9.71025 3.23999C7.83025 8.88999 7.83025 15.12 9.71025 20.77C9.79025 21 9.75024 21.25 9.61024 21.45C9.47024 21.65 9.24024 21.75 9.00024 21.75Z" />
<path d="M16.46 12.75C16.05 12.75 15.71 12.41 15.71 12C15.71 9.01996 15.2299 6.06995 14.2899 3.23995C14.1599 2.84995 14.3699 2.41994 14.7599 2.28994C15.1499 2.15994 15.58 2.36997 15.71 2.75997C16.7 5.73997 17.21 8.84996 17.21 12C17.21 12.41 16.87 12.75 16.46 12.75Z" />
<path d="M12 17.2098C9.2 17.2098 6.43 16.8098 3.75 16.0198C3.74 16.4198 3.41 16.7498 3 16.7498C2.59 16.7498 2.25 16.4098 2.25 15.9998V14.9998C2.25 14.7598 2.37 14.5298 2.56 14.3898C2.75 14.2498 3.01001 14.2098 3.24001 14.2898C6.07001 15.2298 9.02 15.7098 12 15.7098C12.41 15.7098 12.75 16.0498 12.75 16.4598C12.75 16.8698 12.41 17.2098 12 17.2098Z" />
<path d="M21.0002 9.74989C20.9202 9.74989 20.8402 9.73991 20.7602 9.70991C15.1102 7.82991 8.88018 7.82991 3.23018 9.70991C2.84018 9.83991 2.41018 9.62988 2.28018 9.23988C2.15018 8.84988 2.36018 8.41986 2.75018 8.28986C8.71018 6.29986 15.2702 6.29986 21.2202 8.28986C21.6102 8.41986 21.8202 8.84988 21.6902 9.23988C21.6102 9.54988 21.3102 9.74989 21.0002 9.74989Z" />
<path d="M15.8201 22.7498C15.4401 22.7498 15.0801 22.6098 14.8201 22.3498C14.5101 22.0398 14.3701 21.5898 14.4401 21.1198L14.6301 19.7699C14.6801 19.4199 14.89 18.9998 15.14 18.7498L18.68 15.2099C19.16 14.7299 19.63 14.4798 20.14 14.4298C20.77 14.3698 21.3801 14.6299 21.9601 15.2099C22.5401 15.7899 22.8001 16.3999 22.7401 17.0299C22.6901 17.5299 22.4301 18.0098 21.9601 18.4898L18.42 22.0299C18.17 22.2799 17.7601 22.4898 17.4101 22.5398L16.06 22.7298C15.97 22.7398 15.9001 22.7498 15.8201 22.7498ZM20.31 15.9198C20.3 15.9198 20.29 15.9198 20.28 15.9198C20.14 15.9298 19.9501 16.0499 19.7401 16.2699L16.2 19.8098C16.17 19.8398 16.12 19.9398 16.12 19.9798L15.9401 21.2298L17.1901 21.0498C17.2301 21.0398 17.3301 20.9899 17.3601 20.9599L20.9 17.4198C21.11 17.2098 21.24 17.0198 21.2501 16.8798C21.2701 16.6798 21.07 16.4399 20.9 16.2699C20.74 16.1099 20.51 15.9198 20.31 15.9198Z" />
<path d="M20.9201 19.2198C20.8501 19.2198 20.7801 19.2099 20.7201 19.1899C19.4001 18.8199 18.3501 17.7699 17.9801 16.4499C17.8701 16.0499 18.1001 15.6399 18.5001 15.5299C18.9001 15.4199 19.3101 15.6499 19.4301 16.0499C19.6601 16.8699 20.3101 17.5199 21.1301 17.7499C21.5301 17.8599 21.7601 18.2799 21.6501 18.6699C21.5501 18.9999 21.2501 19.2198 20.9201 19.2198Z" />
</svg>

<?xml version="1.0" encoding="UTF-8"?>
<svg width="24" height="24" viewBox="0 0 24 24" xmlns="http://www.w3.org/2000/svg">
 <path d="m12 22.75c-5.93 0-10.75-4.82-10.75-10.75s4.82-10.75 10.75-10.75 10.75 4.82 10.75 10.75c0 0.41-0.34 0.75-0.75 0.75s-0.75-0.34-0.75-0.75c0-5.1-4.15-9.25-9.25-9.25s-9.25 4.15-9.25 9.25 4.15 9.25 9.25 9.25c0.41 0 0.75 0.34 0.75 0.75s-0.34 0.75-0.75 0.75z"/>
 <path d="m9.0002 21.75h-1c-0.41 0-0.75-0.34-0.75-0.75s0.31999-0.74 0.72999-0.75c-1.57-5.36-1.57-11.14 0-16.5-0.4-0.01-0.72999-0.34-0.72999-0.75s0.34-0.75 0.75-0.75h1c0.24 0 0.47 0.12 0.61 0.31 0.14 0.2 0.18001 0.44999 0.10001 0.67999-1.88 5.65-1.88 11.88 0 17.53 0.08 0.23 0.03999 0.48-0.10001 0.68s-0.37 0.3-0.61 0.3z"/>
 <path d="m16.46 12.75c-0.41 0-0.75-0.34-0.75-0.75 0-2.98-0.4801-5.93-1.4201-8.76-0.13-0.39 0.08-0.82001 0.47-0.95001s0.8201 0.08003 0.9501 0.47003c0.99 2.98 1.5 6.09 1.5 9.24 0 0.41-0.34 0.75-0.75 0.75z"/>
 <path d="m12 17.21c-2.8 0-5.57-0.4-8.25-1.19-0.01 0.4-0.34 0.73-0.75 0.73s-0.75-0.34-0.75-0.75v-1c0-0.24 0.12-0.47 0.31-0.61s0.45001-0.18 0.68001-0.1c2.83 0.94 5.78 1.42 8.76 1.42 0.41 0 0.75 0.34 0.75 0.75s-0.34 0.75-0.75 0.75z"/>
 <path d="m21 9.7499c-0.08 0-0.16-0.00998-0.24-0.03998-5.65-1.88-11.88-1.88-17.53 0-0.39 0.13-0.82-0.08003-0.95-0.47003s0.08-0.82002 0.47-0.95002c5.96-1.99 12.52-1.99 18.47 0 0.39 0.13 0.6 0.56002 0.47 0.95002-0.08 0.31-0.38 0.51001-0.69 0.51001z"/>
 <path d="m15.82 22.75c-0.38 0-0.74-0.14-1-0.4-0.31-0.31-0.45-0.76-0.38-1.23l0.19-1.3499c0.05-0.35 0.2599-0.7701 0.5099-1.0201l3.54-3.5399c0.48-0.48 0.95-0.7301 1.46-0.7801 0.63-0.06 1.2401 0.2001 1.8201 0.7801s0.84 1.19 0.78 1.82c-0.05 0.5-0.31 0.9799-0.78 1.4599l-3.5401 3.5401c-0.25 0.25-0.6599 0.4599-1.0099 0.5099l-1.3501 0.19c-0.09 0.01-0.1599 0.02-0.2399 0.02zm4.4899-6.83h-0.03c-0.14 0.01-0.3299 0.1301-0.5399 0.3501l-3.5401 3.5399c-0.03 0.03-0.08 0.13-0.08 0.17l-0.1799 1.25 1.25-0.18c0.04-0.01 0.14-0.0599 0.17-0.0899l3.5399-3.5401c0.21-0.21 0.34-0.4 0.3501-0.54 0.02-0.2-0.1801-0.4399-0.3501-0.6099-0.16-0.16-0.39-0.3501-0.59-0.3501z"/>
 <path d="m20.92 19.22c-0.07 0-0.14-0.0099-0.2-0.0299-1.32-0.37-2.37-1.42-2.74-2.74-0.11-0.4 0.12-0.81 0.52-0.92s0.81 0.12 0.93 0.52c0.23 0.82 0.88 1.47 1.7 1.7 0.4 0.11 0.63 0.53 0.52 0.92-0.1 0.33-0.4 0.5499-0.73 0.5499z"/>
</svg>
